dist/assets/images/passwordRecovery/hidePassword.svg

<svg width="24" height="24" viewBox="0 0 24 24" fill="none" xmlns="http://www.w3.org/2000/svg">
<g clip-path="url(#clip0_1766_3249)">
<path d="M14.9796 12.2022L16.3427 10.839C16.4419 11.2101 16.5 11.598 16.5 12C16.5 14.4814 14.4814 16.5 12 16.5C11.598 16.5 11.2101 16.4419 10.839 16.3427L12.2021 14.9796C13.6926 14.878 14.8779 13.6926 14.9796 12.2022ZM23.9055 11.6357C23.8132 11.4698 22.5049 9.17723 19.9474 7.23436L18.8559 8.3258C20.7208 9.69698 21.9024 11.2962 22.3676 12.0012C21.4787 13.3547 17.9916 18 12 18C11.1015 18 10.266 17.8851 9.47981 17.7017L8.24738 18.9342C9.38044 19.2816 10.6258 19.5 12 19.5C19.8512 19.5 23.7437 12.6555 23.9055 12.3644C24.0315 12.1377 24.0315 11.8624 23.9055 11.6357ZM20.7803 4.2803L4.28025 20.7803C4.13381 20.9267 3.94181 21 3.75 21C3.55819 21 3.36619 20.9267 3.21975 20.7803C2.92669 20.4872 2.92669 20.0127 3.21975 19.7198L5.319 17.6205C1.92525 15.5717 0.200812 12.5558 0.0945 12.3644C-0.0315 12.1377 -0.0315 11.8622 0.0945 11.6355C0.256312 11.3445 4.14881 4.50005 12 4.50005C14.0301 4.50005 15.7884 4.96317 17.2916 5.64792L19.7197 3.2198C20.0128 2.92673 20.4874 2.92673 20.7803 3.2198C21.0731 3.51286 21.0733 3.98742 20.7803 4.2803ZM6.43744 16.5021L8.33625 14.6033C7.81181 13.8675 7.5 12.9704 7.5 12C7.5 9.51867 9.51863 7.50005 12 7.50005C12.9703 7.50005 13.8675 7.81186 14.6033 8.33611L16.1387 6.80067C14.9256 6.31486 13.5471 6.00005 12 6.00005C6.00844 6.00005 2.52131 10.6454 1.63256 11.9989C2.19694 12.8543 3.81919 15.0195 6.43744 16.5021ZM9.42506 13.5143L13.5142 9.42511C13.0682 9.16167 12.5546 9.00005 12 9.00005C10.3459 9.00005 9 10.3459 9 12C9 12.5547 9.16162 13.0682 9.42506 13.5143Z" fill="#AAA49E"/>
</g>
<defs>
<clipPath id="clip0_1766_3249">
<rect width="24" height="24" fill="white"/>
</clipPath>
</defs>
</svg>

<svg width="24" height="24" fill="none" xmlns="http://www.w3.org/2000/svg"><g clip-path="url(#clip0_1766_3249)"><path d="M14.98 12.202l1.363-1.363c.099.371.157.759.157 1.161 0 2.481-2.019 4.5-4.5 4.5-.402 0-.79-.058-1.161-.157l1.363-1.363a2.987 2.987 0 002.778-2.778zm8.925-.566c-.092-.166-1.4-2.459-3.958-4.402l-1.091 1.092A15.01 15.01 0 0122.368 12c-.89 1.355-4.376 6-10.368 6a11.02 11.02 0 01-2.52-.298l-1.233 1.232c1.133.348 2.379.566 3.753.566 7.851 0 11.744-6.845 11.905-7.136a.75.75 0 000-.728zM20.78 4.28l-16.5 16.5a.748.748 0 01-1.06 0 .75.75 0 010-1.06l2.099-2.1C1.925 15.572.201 12.556.095 12.364a.75.75 0 010-.729C.256 11.346 4.149 4.5 12 4.5c2.03 0 3.788.463 5.292 1.148L19.72 3.22a.75.75 0 111.06 1.06zM6.437 16.502l1.9-1.899A4.47 4.47 0 017.5 12c0-2.481 2.019-4.5 4.5-4.5.97 0 1.867.312 2.603.836l1.536-1.535A11.043 11.043 0 0012 6c-5.992 0-9.479 4.645-10.367 6 .564.855 2.186 3.02 4.804 4.503zm2.988-2.988l4.09-4.089A2.966 2.966 0 0012 9c-1.654 0-3 1.346-3 3 0 .555.162 1.068.425 1.514z" fill="#AAA49E"/></g><defs><clipPath id="clip0_1766_3249"><path fill="#fff" d="M0 0h24v24H0z"/></clipPath></defs></svg>
